public/avatar/body/117.svg

<svg xmlns:xlink="http://www.w3.org/1999/xlink" height="82" width="84.85" xmlns="http://www.w3.org/2000/svg"><use height="41.55" transform="translate(21.4 23.95)" width="40.3" xlink:href="#a"/><defs><g id="a" fill-rule="evenodd"><path d="M13.85-13.6q1.7.4 2.4 2.25l.05.15.2 1.05.65.5.05.05q1.45 1.2 1.5 3.05v.9l.9 1.8.05.1.6 1.45.05.1.05.3 2.45-.15.7.25.35.65.05.45v.05l-.1.45h.05l-.7 1.1.4.15.35.25.05.05.2.35.15.45v.65q-.7 1.9-2.55 3.25l-.05.05q-.3 3.85-2 7.15l-.3.55.25.5.1.45q0 1.05-.85 1.7l-.65.6-.1.1-1.4 1.6-.05.1-1.2.7-.15.05-.4.1-.2.3q-1.65 2.1-4.3 1.85h-.05l-.15-.05q-1.1 1.15-2.7 1.45H7.2q-1.45-.2-2.8-.95l-.1-.05-.1-.05q-1.05.75-2.5.9h-.1q-2 0-3.45-1.3-1.9.3-3.45-.65l-.1-.1q-.65-.5-.95-1.2-2.2.1-3.2-2.2l-.6-.85-.75-.75-.4-.5-.1-.55.2-.8V14l.2-.35q-1.85-3.4-2.2-7.4-2-1.15-2.7-3.4l-.05-.05-.05-.15.05-.85.2-.45.05-.05q.15-.2.45-.25h-.05l.5-.15-.6-1-.05-.05-.05-.1-.15-.8.15-.5.4-.35v-.05l.5-.1 2.55.15Q-12.3-3.45-11-4.8l.65-.65q-.15-1.95.9-3.55l.05-.05.05-.05 1.05-.9q-.1-1.55 1.25-2.9.55-.55 1.3-.7.55-1.3 2-1.8h.15v-.05h.3l.95-1v-.05l1.35-1 .05-.05q1.7-.9 3.65-.5l3.6-.2q2.55-.3 4.25 1.4l.05.05.75 1 1.6 1.25.9.95" fill="#3f4852" transform="translate(16 18.3)"/><path d="M6.45-17.05q1.15.05 2.05.65l3.85 2.5.9 1.2q2.45.55 2.2 3.1 2.75 1.4 2.2 4.1Q19.1-3.45 19.5-.85l3.35-.2.05.45q-.55 1.1-1.7 1.9l2 .7.15.45q-.65 2.05-2.6 3.05.1 4.55-2.5 8.25l.5 1-.2.75-.9 1q-1.45 2.3-3.7 2.25l-.15.55q-1.4 2.15-3.95 1.4-2.75 2.8-5.7.15-2.65 2.3-5.7-.15-2.85.6-4.1-1.95l-.85.05q-2.25-1.55-3.9-3.7l.55-1.45q-2.05-3.9-2.4-8.05Q-14.5 4.55-15 2l1.75-.55-1.4-2.5 3.65.2q-.4-2.65 1.7-4.3-.25-2.9 2.1-4.3-.05-2.55 2.15-3.25l.3-.5 1.35-1.25.55-.05q.8-.9 1.8-1.4 3.5-1.75 7.5-1.15" fill="#fff" transform="translate(16 18.3)"/><path d="M17.35-8q.5.75.3 2.45-.05.45.65 1.15l.75 1q.7 1.2.45 2.25l.2.1-3.3.25q1.4-2.05-.85-3.85 1.2-2.3-1.65-4.3 1.35-2.5 1.2-3.25.55 2.2.3 2.7.95-.05 1.95 1.5M21.3 5.15q.1.7-.75 2.55l-1.15 4q-.3 1-.3 3.5-.4.8-2.4 1.6.3.7-.7 1.55l-2.15.3q-.05.95-.5 1.35-.6.5-1.35.7l-2.15-.05-.9.85q-1.4.9-2.95.55-1.75-.8-2.75-.95-.05 0 .6-.45l.75-.1 1.3.05q1.05-.3 1.85-1.3.4-.5.85-.45l1.15.1q1.45 0 2.05-.65l.45-2q2.45-.2 2.9-1 .8-1.3-.3-2.4.65.65 1.5-1.05 1.05-1.5.45-2.65l-.3-.85.6-.9q.15-.5-.25-2.15h.65l3.8-.15M-4 17.85l-.3-1.4 2.15 1.75q1.25.85 4.25 1.25-2.15 1.1-4.25.35-1.3-.45-1.85-1.95m-2.95-5.15-.05-.75 1.25 1.4 2 1.6q-1.25-.15-2.3-.9-.7-.45-.9-1.35M7-13.7q-.05-1.5 1-1.7 1.3-.25 2 1.45T8.85-12.2Q7.1-12.15 7-13.7m-5.1 0q-.1 1.55-1.85 1.5-1.85-.05-1.15-1.75.7-1.7 2-1.45 1.05.25 1 1.7" fill="#cedae7" transform="translate(16 18.3)"/></g></defs></svg>

<?xml version="1.0" encoding="UTF-8" standalone="no"?>
<svg xmlns:xlink="http://www.w3.org/1999/xlink" height="82.0px" width="84.85px" xmlns="http://www.w3.org/2000/svg">
  <g transform="matrix(1.0, 0.0, 0.0, 1.0, 37.4, 42.25)">
    <use height="41.55" transform="matrix(1.0, 0.0, 0.0, 1.0, -16.0, -18.3)" width="40.3" xlink:href="#shape0"/>
  </g>
  <defs>
    <g id="shape0" transform="matrix(1.0, 0.0, 0.0, 1.0, 16.0, 18.3)">
      <path d="M13.85 -13.6 Q15.55 -13.2 16.25 -11.35 L16.3 -11.2 16.5 -10.15 17.15 -9.65 17.2 -9.6 Q18.65 -8.4 18.7 -6.55 L18.7 -6.5 18.7 -5.65 19.6 -3.85 19.65 -3.75 20.25 -2.3 20.3 -2.2 20.35 -1.9 22.8 -2.05 23.5 -1.8 23.85 -1.15 23.9 -0.7 23.9 -0.65 23.8 -0.2 23.85 -0.2 23.15 0.9 23.55 1.05 23.9 1.3 23.95 1.35 24.15 1.7 24.3 2.15 24.3 2.8 Q23.6 4.7 21.75 6.05 L21.7 6.1 Q21.4 9.95 19.7 13.25 L19.4 13.8 19.65 14.3 19.75 14.75 Q19.75 15.8 18.9 16.45 L18.25 17.05 18.15 17.15 16.75 18.75 16.7 18.85 15.5 19.55 15.35 19.6 14.95 19.7 14.75 20.0 Q13.1 22.1 10.45 21.85 L10.4 21.85 10.25 21.8 Q9.15 22.95 7.55 23.25 L7.2 23.25 Q5.75 23.05 4.4 22.3 L4.3 22.25 4.2 22.2 Q3.15 22.95 1.7 23.1 L1.6 23.1 Q-0.4 23.1 -1.85 21.8 -3.75 22.1 -5.3 21.15 L-5.4 21.05 Q-6.05 20.55 -6.35 19.85 -8.55 19.95 -9.55 17.65 L-10.15 16.8 -10.9 16.05 -11.3 15.55 -11.4 15.0 -11.2 14.2 -11.2 14.0 -11.0 13.65 Q-12.85 10.25 -13.2 6.25 -15.2 5.1 -15.9 2.85 L-15.95 2.8 -16.0 2.65 -15.95 1.8 -15.75 1.35 -15.7 1.3 Q-15.55 1.1 -15.25 1.05 L-15.3 1.05 -14.8 0.9 -15.4 -0.1 -15.45 -0.15 -15.5 -0.25 -15.65 -1.05 -15.5 -1.55 -15.1 -1.9 -15.1 -1.95 -14.6 -2.05 -12.05 -1.9 Q-12.3 -3.45 -11.0 -4.8 L-10.35 -5.45 Q-10.5 -7.4 -9.45 -9.0 L-9.4 -9.05 -9.35 -9.1 -8.3 -10.0 Q-8.4 -11.55 -7.05 -12.9 -6.5 -13.45 -5.75 -13.6 -5.2 -14.9 -3.75 -15.4 L-3.6 -15.4 -3.6 -15.45 -3.3 -15.45 -2.35 -16.45 -2.35 -16.5 -1.0 -17.5 -0.95 -17.55 Q0.75 -18.45 2.7 -18.05 L6.3 -18.25 Q8.85 -18.55 10.55 -16.85 L10.6 -16.8 11.35 -15.8 12.95 -14.55 13.85 -13.6" fill="#3f4852" fill-rule="evenodd" stroke="none"/>
      <path d="M6.45 -17.05 Q7.6 -17.0 8.5 -16.4 L12.35 -13.9 13.25 -12.7 Q15.7 -12.15 15.45 -9.6 18.2 -8.2 17.65 -5.5 19.1 -3.45 19.5 -0.85 L22.85 -1.05 22.9 -0.6 Q22.35 0.5 21.2 1.3 L23.2 2.0 23.35 2.45 Q22.7 4.5 20.75 5.5 20.85 10.05 18.25 13.75 L18.75 14.75 18.55 15.5 17.65 16.5 Q16.2 18.8 13.95 18.75 L13.8 19.3 Q12.4 21.45 9.85 20.7 7.1 23.5 4.15 20.85 1.5 23.15 -1.55 20.7 -4.4 21.3 -5.65 18.75 L-6.5 18.8 Q-8.75 17.25 -10.4 15.1 L-9.85 13.65 Q-11.9 9.75 -12.25 5.6 -14.5 4.55 -15.0 2.0 L-13.25 1.45 -14.65 -1.05 -11.0 -0.85 Q-11.4 -3.5 -9.3 -5.15 -9.55 -8.05 -7.2 -9.45 -7.25 -12.0 -5.05 -12.7 L-4.75 -13.2 -3.4 -14.45 -2.85 -14.5 Q-2.05 -15.4 -1.05 -15.9 2.45 -17.65 6.45 -17.05" fill="#ffffff" fill-rule="evenodd" stroke="none"/>
      <path d="M17.35 -8.0 Q17.85 -7.25 17.65 -5.55 17.6 -5.1 18.3 -4.4 L19.05 -3.4 Q19.75 -2.2 19.5 -1.15 L19.7 -1.05 16.4 -0.8 Q17.8 -2.85 15.55 -4.65 16.75 -6.95 13.9 -8.95 15.25 -11.45 15.1 -12.2 15.65 -10.0 15.4 -9.5 16.35 -9.55 17.35 -8.0" fill="#cedae7" fill-rule="evenodd" stroke="none"/>
      <path d="M21.3 5.15 Q21.4 5.85 20.55 7.7 L19.4 11.7 Q19.1 12.7 19.1 15.2 18.7 16.0 16.7 16.8 17.0 17.5 16.0 18.35 L13.85 18.65 Q13.8 19.6 13.35 20.0 12.75 20.5 12.0 20.7 L9.85 20.65 8.95 21.5 Q7.55 22.4 6.0 22.05 4.25 21.25 3.25 21.1 3.2 21.1 3.85 20.65 L4.6 20.55 5.9 20.6 Q6.95 20.3 7.75 19.3 8.15 18.8 8.6 18.85 L9.75 18.95 Q11.2 18.95 11.8 18.3 L12.25 16.3 Q14.7 16.1 15.15 15.3 15.95 14.0 14.85 12.9 15.5 13.55 16.35 11.85 17.4 10.35 16.8 9.2 L16.5 8.35 17.1 7.45 Q17.25 6.95 16.85 5.3 L17.5 5.3 21.3 5.15" fill="#cedae7" fill-rule="evenodd" stroke="none"/>
      <path d="M-4.0 17.85 L-4.3 16.45 -2.15 18.2 Q-0.9 19.05 2.1 19.45 -0.05 20.55 -2.15 19.8 -3.45 19.35 -4.0 17.85" fill="#cedae7" fill-rule="evenodd" stroke="none"/>
      <path d="M-6.95 12.7 L-7.0 11.95 -5.75 13.35 -3.75 14.95 Q-5.0 14.8 -6.05 14.05 -6.75 13.6 -6.95 12.7" fill="#cedae7" fill-rule="evenodd" stroke="none"/>
      <path d="M7.0 -13.7 Q6.95 -15.2 8.0 -15.4 9.3 -15.65 10.0 -13.95 10.7 -12.25 8.85 -12.2 7.1 -12.15 7.0 -13.7" fill="#cedae7" fill-rule="evenodd" stroke="none"/>
      <path d="M1.9 -13.7 Q1.8 -12.15 0.05 -12.2 -1.8 -12.25 -1.1 -13.95 -0.4 -15.65 0.9 -15.4 1.95 -15.15 1.9 -13.7" fill="#cedae7" fill-rule="evenodd" stroke="none"/>
    </g>
  </defs>
</svg>
